img/footer/insta.svg

<svg width="30" height="30" viewBox="0 0 30 30" fill="none" xmlns="http://www.w3.org/2000/svg">
<path fill-rule="evenodd" clip-rule="evenodd" d="M9.10714 4.6875C6.66624 4.6875 4.6875 6.66624 4.6875 9.10714V20.8929C4.6875 23.3338 6.66624 25.3125 9.10714 25.3125H20.8929C23.3338 25.3125 25.3125 23.3338 25.3125 20.8929V9.10714C25.3125 6.66624 23.3338 4.6875 20.8929 4.6875H9.10714ZM15.0004 18.4375C16.8988 18.4375 18.4379 16.8985 18.4379 15C18.4379 13.1015 16.8988 11.5625 15.0004 11.5625C13.1019 11.5625 11.5629 13.1015 11.5629 15C11.5629 16.8985 13.1019 18.4375 15.0004 18.4375ZM15.0004 20.4018C17.9837 20.4018 20.4022 17.9833 20.4022 15C20.4022 12.0167 17.9837 9.5982 15.0004 9.5982C12.017 9.5982 9.59858 12.0167 9.59858 15C9.59858 17.9833 12.017 20.4018 15.0004 20.4018ZM20.4024 10.5818C20.9448 10.5818 21.3845 10.1421 21.3845 9.59964C21.3845 9.05722 20.9448 8.6175 20.4024 8.6175C19.86 8.6175 19.4203 9.05722 19.4203 9.59964C19.4203 10.1421 19.86 10.5818 20.4024 10.5818Z" fill="white"/>
</svg>

<svg width="30" height="30" fill="none" xmlns="http://www.w3.org/2000/svg"><path fill-rule="evenodd" clip-rule="evenodd" d="M9.107 4.688a4.42 4.42 0 00-4.42 4.42v11.785a4.42 4.42 0 004.42 4.42h11.786a4.42 4.42 0 004.42-4.42V9.107a4.42 4.42 0 00-4.42-4.42H9.107zM15 18.438a3.438 3.438 0 100-6.876 3.438 3.438 0 000 6.876zm0 1.964a5.402 5.402 0 100-10.804 5.402 5.402 0 000 10.804zm5.402-9.82a.982.982 0 100-1.964.982.982 0 000 1.964z" fill="#fff"/></svg>
